static/assets/template/assets/img/icons/essential/detailed/Bottle_2.svg

<svg height="135" viewBox="0 0 151 135" width="151" xmlns="http://www.w3.org/2000/svg"><g fill="none" fill-rule="evenodd" transform="translate(2 2)"><g stroke-linecap="round" stroke-linejoin="round" stroke-width="3" transform="translate(1 130)"><path d="m1.7.8h-1.3"/><path d="m34.4.8h-27.9"/><path d="m40.8.8h-1.2"/><path d="m139.5.8h-92.2"/><path d="m145.3.8h-1.9"/></g><path d="m125 45.3-6.7-6 4.2-4.7 6.7 6c2.8 2.5 7 2.2 9.5-.6s2.2-7-.6-9.5l-6.7-6 4.2-4.7 6.7 6c5.4 4.8 5.8 13 1.1 18.4-4.8 5.4-13 5.9-18.4 1.1z" fill-rule="nonzero"/><path d="m125 45.3-6.7-6 4.2-4.7 6.7 6c2.8 2.5 7 2.2 9.5-.6s2.2-7-.6-9.5l-6.7-6 4.2-4.7 6.7 6c5.4 4.8 5.8 13 1.1 18.4-4.8 5.4-13 5.9-18.4 1.1z" fill-rule="nonzero"/><path d="m124.7 45-6.3-5.6 4.2-4.7 6.7 6c2.8 2.5 7 2.2 9.5-.6s2.2-7-.6-9.5l-6.7-6 4.2-4.7 6.7 6c3.6 3.2 5 7.9 4.1 12.3" stroke-linecap="round" stroke-linejoin="round" stroke-width="3"/><path d="m143.8 43.8c-.1.2-.3.3-.4.5-2.7 3-6.4 4.5-10.1 4.4" stroke-linecap="round" stroke-linejoin="round" stroke-width="3"/><path d="m109.3 19.9 5.8-6.4 13.4 11.9-13.6 15.3-13.4-12 3.2-3.6" fill-rule="nonzero" stroke-linecap="round" stroke-linejoin="round" stroke-width="3"/><path d="m132.7.1c2.4 2.2 4.6 4.1 6.9 6.2-2.8 3.2-5.6 6.3-8.5 9.6 2.1 1.8 3.9 3.5 5.9 5.2-2.2 2.4-4.2 4.7-6.3 7.1-6.2-5.5-12.4-11-18.7-16.6 2.1-2.3 4-4.5 6.2-7 1.9 1.7 3.8 3.4 5.8 5.2 3-3.4 5.8-6.4 8.7-9.7z" fill-rule="nonzero"/><path d="m132.7.1c2.4 2.2 4.6 4.1 6.9 6.2-2.8 3.2-5.6 6.3-8.5 9.6 2.1 1.8 3.9 3.5 5.9 5.2-2.2 2.4-4.2 4.7-6.3 7.1-6.2-5.5-12.4-11-18.7-16.6 2.1-2.3 4-4.5 6.2-7 1.9 1.7 3.8 3.4 5.8 5.2 3-3.4 5.8-6.4 8.7-9.7z" fill-rule="nonzero"/><path d="m136.3 8.7c.2.2.4.3.6.5-2.8 3.2-2.7 3.4-5.6 6.7l4.8 4.2c-2.2 2.4-3.2 5.7-5.3 8.1l-16.1-14.5 2.5-2.8c2.1-2.3 5.7-2.5 8-.5l1.5 1.4c1-1.1 1.7-1.9 2.2-2.6 1.7-2.2 5.1-2.5 7.4-.5z" fill-rule="nonzero"/><path d="m136.8 3.8c.9.8 1.9 1.7 2.8 2.5-2.8 3.2-5.6 6.3-8.5 9.6 2.1 1.8 3.9 3.5 5.9 5.2-2.2 2.4-4.2 4.7-6.3 7.1-6.2-5.5-12.4-11-18.7-16.6 2.1-2.3 4-4.5 6.2-7 1.9 1.7 3.8 3.4 5.8 5.2 2.9-3.2 5.6-6.3 8.4-9.5" stroke-linecap="round" stroke-linejoin="round" stroke-width="3"/><path d="m121.9 58.6c-2.9 3.4-5.9 6.7-8.9 10-.3.3-.6.6-.8.9-.6.6-2.1 1.1-2.9.9-1.4-.4-2.8-.6-4.1-.4-5.9.7-10 6.9-7.7 13.4.3.8-.1 2.2-.7 2.9 0 0-.1.1-.1.1v.1c-.1.1-.2.2-.2.3-.2.3-.5.5-.7.8-.6.7-1.2 1.4-1.8 2.1-9.8 11.1-19.7 22.2-29.6 33.3-1.1 1.2-2.2 2.4-3.3 3.6-4.6 5.1-12 6.2-17.3 1.9-3.3-2.7-6.5-5.4-9.7-8.2-4.1-3.6-8.1-7.3-12-11.1-4.9-4.8-4.6-12.3-.1-17.4 11.8-13.3 23.7-26.6 35.4-39.9.9-1 1.8-1.3 3.1-1.1 8.3 1.4 14-4.9 11.7-13.1-.4-1.5-.1-2.4.8-3.4 3.2-3.5 6.4-7.2 9.6-10.7 5-5.6 12.8-6.2 18.7-1.3 3.4 2.8 6.6 5.8 9.9 8.8 3.1 2.8 6.2 5.5 9.3 8.3 6.1 5.3 6.7 12.9 1.4 19.2z" fill-rule="nonzero"/><path d="m122.5 57.1c-.8.9-6.8 8.2-9.6 11.5-.6.8-1.1 1.3-1.3 1.5-.6.6-2.1 1-3 .6-1.2-.5-2.4-.7-3.5-.8-6.2-.4-10.5 5-8.7 11.6.2.6.4 1.2.6 1.8.4.9.1 2.3-.4 2.9v.1c-.1.1-.2.2-.2.3-.2.3-.5.5-.7.8-.6.7-1.2 1.4-1.8 2.1-9.6 10.9-19 21.7-28.6 32.5-.3.3-.7.5-1 .7-4.6 3-11 2.7-16.2-1.6-8.2-6.8-16.2-14-23.9-21.4 11.3-12.7 25.4-30.2 36.7-42.9.9-1 1.7-1.3 2.9-1.1 7.6 1 13.2-5.2 11.4-12.8-.3-1.3 0-2.2.9-3.2 3.2-3.5 6.3-7 9.4-10.5 4.9-5.5 12.2-6.4 17.3-2.1 3 2.5 5.8 5.2 8.8 7.8 2.8 2.5 5.5 4.9 8.3 7.4 4.4 4 5.3 9.5 2.6 14.8z" fill-rule="nonzero"/><path d="m96.5 85.6c-.1.7-.5 1.4-.9 1.9-.6.7-1.2 1.4-1.8 2.1-9.6 10.9-19 21.7-28.6 32.5-1.4 1.5-2.7 3.1-4.1 4.6-4.4 5-11.7 6.4-16.4 2.6-3.7-3-7.3-6-10.8-9.2-2.9-2.6-5.7-5.2-8.5-7.9-2.4-2.4-3.6-6-2.6-10.1.2-.9.6-1.6 1.2-2.2 1.9-2.1 5.3-2.5 7.6-.3 6.3 5.8 12.7 11.4 19.3 16.8 6.1 5 14 4.6 18.5-.4 9.1-10.2 18.1-20.3 27.1-30.4z" fill-rule="nonzero"/><g stroke-linecap="round" stroke-linejoin="round" stroke-width="3"><path d="m65.4 121.5c-1.5 1.6-2.9 3.3-4.4 4.9-4.6 5.1-12 6.2-17.3 1.9-7.5-6.1-14.7-12.6-21.7-19.3-4.9-4.8-4.6-12.3-.1-17.4 11.8-13.3 23.6-26.6 35.4-39.9.9-1 1.7-1.3 3.1-1.1 8.3 1.4 14-4.9 11.7-13.1-.4-1.5-.1-2.3.8-3.4 3.2-3.5 6.4-7.2 9.6-10.7 1.3-1.5 2.8-2.6 4.4-3.3"/><path d="m100.3 21.3c.3.2.7.5 1 .8 3.4 2.8 6.6 5.8 9.9 8.8 3.1 2.8 6.2 5.5 9.3 8.3 6.1 5.5 6.7 13.1 1.4 19.4-3.2 3.7-6.4 7.4-9.8 10.9-.6.6-2 1.1-2.9.8-7.8-2.4-14.6 5.1-11.8 13 .3.8-.1 2.2-.7 2.9-8.7 9.8-17.4 19.7-26.1 29.5"/><path d="m94.1 18.9c.4 0 .8.1 1.2.2"/><path d="m67.7 76.9 15.2.1"/><path d="m53.5 76.8 6.6.1"/><path d="m39.4 93.7 29.4.2"/><path d="m47.8 18h-13.1"/><path d="m73.6 18h-18.5"/><path d="m27.3 25.2h-5.9"/><path d="m66.3 25.2h-31.7"/><path d="m4.2 66.6h-4.2"/><path d="m28.9 66.6h-19.5"/></g></g></svg>

<?xml version="1.0" encoding="UTF-8"?>
<svg width="151px" height="135px" viewBox="0 0 151 135" version="1.1" xmlns="http://www.w3.org/2000/svg" xmlns:xlink="http://www.w3.org/1999/xlink">
    <!-- Generator: Sketch 51.2 (57519) - http://www.bohemiancoding.com/sketch -->
    <title>Bottle_2</title>
    <desc>Created with Sketch.</desc>
    <defs></defs>
    <g id="Page-1" stroke="none" stroke-width="1" fill="none" fill-rule="evenodd">
        <g id="Bottle_2" transform="translate(2.000000, 2.000000)">
            <g id="Group" transform="translate(1.000000, 130.000000)" class="stroke-primary-300" stroke-linecap="round" stroke-linejoin="round" stroke-width="3">
                <path d="M1.7,0.8 L0.4,0.8" id="Shape"></path>
                <path d="M34.4,0.8 L6.5,0.8" id="Shape"></path>
                <path d="M40.8,0.8 L39.6,0.8" id="Shape"></path>
                <path d="M139.5,0.8 L47.3,0.8" id="Shape"></path>
                <path d="M145.3,0.8 L143.4,0.8" id="Shape"></path>
            </g>
            <path d="M125,45.3 L118.3,39.3 L122.5,34.6 L129.2,40.6 C132,43.1 136.2,42.8 138.7,40 C141.2,37.2 140.9,33 138.1,30.5 L131.4,24.5 L135.6,19.8 L142.3,25.8 C147.7,30.6 148.1,38.8 143.4,44.2 C138.6,49.6 130.4,50.1 125,45.3 Z" id="Shape" class="fill-neutral" fill-rule="nonzero"></path>
            <path d="M125,45.3 L118.3,39.3 L122.5,34.6 L129.2,40.6 C132,43.1 136.2,42.8 138.7,40 C141.2,37.2 140.9,33 138.1,30.5 L131.4,24.5 L135.6,19.8 L142.3,25.8 C147.7,30.6 148.1,38.8 143.4,44.2 C138.6,49.6 130.4,50.1 125,45.3 Z" id="Shape" class="fill-primary-500" fill-rule="nonzero"></path>
            <path d="M124.7,45 L118.4,39.4 L122.6,34.7 L129.3,40.7 C132.1,43.2 136.3,42.9 138.8,40.1 C141.3,37.3 141,33.1 138.2,30.6 L131.5,24.6 L135.7,19.9 L142.4,25.9 C146,29.1 147.4,33.8 146.5,38.2" id="Shape" class="stroke-primary" stroke-width="3" stroke-linecap="round" stroke-linejoin="round"></path>
            <path d="M143.8,43.8 C143.7,44 143.5,44.1 143.4,44.3 C140.7,47.3 137,48.8 133.3,48.7" id="Shape" class="stroke-primary" stroke-width="3" stroke-linecap="round" stroke-linejoin="round"></path>
            <polyline id="Shape" stroke-width="3" class="stroke-primary fill-primary-500" fill-rule="nonzero" stroke-linecap="round" stroke-linejoin="round" points="109.3 19.9 115.1 13.5 128.5 25.4 114.9 40.7 101.5 28.7 104.7 25.1"></polyline>
            <path d="M132.7,0.1 C135.1,2.3 137.3,4.2 139.6,6.3 C136.8,9.5 134,12.6 131.1,15.9 C133.2,17.7 135,19.4 137,21.1 C134.8,23.5 132.8,25.8 130.7,28.2 C124.5,22.7 118.3,17.2 112,11.6 C114.1,9.3 116,7.1 118.2,4.6 C120.1,6.3 122,8 124,9.8 C127,6.4 129.8,3.4 132.7,0.1 Z" id="Shape" class="fill-neutral" fill-rule="nonzero"></path>
            <path d="M132.7,0.1 C135.1,2.3 137.3,4.2 139.6,6.3 C136.8,9.5 134,12.6 131.1,15.9 C133.2,17.7 135,19.4 137,21.1 C134.8,23.5 132.8,25.8 130.7,28.2 C124.5,22.7 118.3,17.2 112,11.6 C114.1,9.3 116,7.1 118.2,4.6 C120.1,6.3 122,8 124,9.8 C127,6.4 129.8,3.4 132.7,0.1 Z" id="Shape" class="fill-neutral" fill-rule="nonzero"></path>
            <path d="M136.3,8.7 C136.5,8.9 136.7,9 136.9,9.2 C134.1,12.4 134.2,12.6 131.3,15.9 L136.1,20.1 C133.9,22.5 132.9,25.8 130.8,28.2 L114.7,13.7 L117.2,10.9 C119.3,8.6 122.9,8.4 125.2,10.4 L126.7,11.8 C127.7,10.7 128.4,9.9 128.9,9.2 C130.6,7 134,6.7 136.3,8.7 Z" id="Shape" class="fill-primary-500" fill-rule="nonzero"></path>
            <path d="M136.8,3.8 C137.7,4.6 138.7,5.5 139.6,6.3 C136.8,9.5 134,12.6 131.1,15.9 C133.2,17.7 135,19.4 137,21.1 C134.8,23.5 132.8,25.8 130.7,28.2 C124.5,22.7 118.3,17.2 112,11.6 C114.1,9.3 116,7.1 118.2,4.6 C120.1,6.3 122,8 124,9.8 C126.9,6.6 129.6,3.5 132.4,0.3" id="Shape" class="stroke-primary" stroke-width="3" stroke-linecap="round" stroke-linejoin="round"></path>
            <path d="M121.9,58.6 C119,62 116,65.3 113,68.6 C113,68.6 113,68.6 113,68.6 C112.7,68.9 112.4,69.2 112.2,69.5 C111.6,70.1 110.1,70.6 109.3,70.4 C107.9,70 106.5,69.8 105.2,70 C99.3,70.7 95.2,76.9 97.5,83.4 C97.8,84.2 97.4,85.6 96.8,86.3 C96.8,86.3 96.7,86.4 96.7,86.4 C96.7,86.4 96.7,86.4 96.7,86.5 C96.6,86.6 96.5,86.7 96.5,86.8 C96.3,87.1 96,87.3 95.8,87.6 C95.2,88.3 94.6,89 94,89.7 C84.2,100.8 74.3,111.9 64.4,123 C63.3,124.2 62.2,125.4 61.1,126.6 C56.5,131.7 49.1,132.8 43.8,128.5 C40.5,125.8 37.3,123.1 34.1,120.3 C30,116.7 26,113 22.1,109.2 C17.2,104.4 17.5,96.9 22,91.8 C33.8,78.5 45.7,65.2 57.4,51.9 C58.3,50.9 59.2,50.6 60.5,50.8 C68.8,52.2 74.5,45.9 72.2,37.7 C71.8,36.2 72.1,35.3 73,34.3 C76.2,30.8 79.4,27.1 82.6,23.6 C87.6,18 95.4,17.4 101.3,22.3 C104.7,25.1 107.9,28.1 111.2,31.1 C111.2,31.1 111.2,31.1 111.2,31.1 C114.3,33.9 117.4,36.6 120.5,39.4 C126.6,44.7 127.2,52.3 121.9,58.6 Z" id="Shape" class="fill-neutral" fill-rule="nonzero"></path>
            <path d="M122.5,57.1 C121.7,58 115.7,65.3 112.9,68.6 C112.9,68.6 112.9,68.6 112.9,68.6 C112.3,69.4 111.8,69.9 111.6,70.1 C111,70.7 109.5,71.1 108.6,70.7 C107.4,70.2 106.2,70 105.1,69.9 C98.9,69.5 94.6,74.9 96.4,81.5 C96.6,82.1 96.8,82.7 97,83.3 C97.4,84.2 97.1,85.6 96.6,86.2 C96.6,86.2 96.6,86.2 96.6,86.3 C96.5,86.4 96.4,86.5 96.4,86.6 C96.2,86.9 95.9,87.1 95.7,87.4 C95.1,88.1 94.5,88.8 93.9,89.5 C84.3,100.4 74.9,111.2 65.3,122 C65,122.3 64.6,122.5 64.3,122.7 C59.7,125.7 53.3,125.4 48.1,121.1 C39.9,114.3 31.9,107.1 24.2,99.7 C24.2,99.7 24.2,99.7 24.2,99.7 C35.5,87 49.6,69.5 60.9,56.8 C61.8,55.8 62.6,55.5 63.8,55.7 C71.4,56.7 77,50.5 75.2,42.9 C74.9,41.6 75.2,40.7 76.1,39.7 C79.3,36.2 82.4,32.7 85.5,29.2 C90.4,23.7 97.7,22.8 102.8,27.1 C105.8,29.6 108.6,32.3 111.6,34.9 C111.6,34.9 111.6,34.9 111.6,34.9 C114.4,37.4 117.1,39.8 119.9,42.3 C124.3,46.3 125.2,51.8 122.5,57.1 Z" id="Shape" class="fill-primary-100" fill-rule="nonzero"></path>
            <path d="M96.5,85.6 C96.4,86.3 96,87 95.6,87.5 C95,88.2 94.4,88.9 93.8,89.6 C84.2,100.5 74.8,111.3 65.2,122.1 C63.8,123.6 62.5,125.2 61.1,126.7 C56.7,131.7 49.4,133.1 44.7,129.3 C41,126.3 37.4,123.3 33.9,120.1 C31,117.5 28.2,114.9 25.4,112.2 C23,109.8 21.8,106.2 22.8,102.1 C23,101.2 23.4,100.5 24,99.9 C25.9,97.8 29.3,97.4 31.6,99.6 C37.9,105.4 44.3,111 50.9,116.4 C57,121.4 64.9,121 69.4,116 C78.5,105.8 87.5,95.7 96.5,85.6 Z" id="Shape" class="fill-primary-400" fill-rule="nonzero"></path>
            <path d="M65.4,121.5 C63.9,123.1 62.5,124.8 61,126.4 C56.4,131.5 49,132.6 43.7,128.3 C36.2,122.2 29,115.7 22,109 C17.1,104.2 17.4,96.7 21.9,91.6 C33.7,78.3 45.5,65 57.3,51.7 C58.2,50.7 59,50.4 60.4,50.6 C68.7,52 74.4,45.7 72.1,37.5 C71.7,36 72,35.2 72.9,34.1 C76.1,30.6 79.3,26.9 82.5,23.4 C83.8,21.9 85.3,20.8 86.9,20.1" id="Shape" class="stroke-primary" stroke-width="3" stroke-linecap="round" stroke-linejoin="round"></path>
            <path d="M100.3,21.3 C100.6,21.5 101,21.8 101.3,22.1 C104.7,24.9 107.9,27.9 111.2,30.9 C111.2,30.9 111.2,30.9 111.2,30.9 C114.3,33.7 117.4,36.4 120.5,39.2 C126.6,44.7 127.2,52.3 121.9,58.6 C118.7,62.3 115.5,66 112.1,69.5 C111.5,70.1 110.1,70.6 109.2,70.3 C101.4,67.9 94.6,75.4 97.4,83.3 C97.7,84.1 97.3,85.5 96.7,86.2 C88,96 79.3,105.9 70.6,115.7" id="Shape" class="stroke-primary" stroke-width="3" stroke-linecap="round" stroke-linejoin="round"></path>
            <path d="M94.1,18.9 C94.5,18.9 94.9,19 95.3,19.1" id="Shape" class="stroke-primary" stroke-width="3" stroke-linecap="round" stroke-linejoin="round"></path>
            <path d="M67.7,76.9 L82.9,77" id="Shape" class="stroke-primary" stroke-width="3" stroke-linecap="round" stroke-linejoin="round"></path>
            <path d="M53.5,76.8 L60.1,76.9" id="Shape" class="stroke-primary" stroke-width="3" stroke-linecap="round" stroke-linejoin="round"></path>
            <path d="M39.4,93.7 L68.8,93.9" id="Shape" class="stroke-primary" stroke-width="3" stroke-linecap="round" stroke-linejoin="round"></path>
            <path d="M47.8,18 L34.7,18" id="Shape" class="stroke-primary-300" stroke-width="3" stroke-linecap="round" stroke-linejoin="round"></path>
            <path d="M73.6,18 L55.1,18" id="Shape" class="stroke-primary-300" stroke-width="3" stroke-linecap="round" stroke-linejoin="round"></path>
            <path d="M27.3,25.2 L21.4,25.2" id="Shape" class="stroke-primary-300" stroke-width="3" stroke-linecap="round" stroke-linejoin="round"></path>
            <path d="M66.3,25.2 L34.6,25.2" id="Shape" class="stroke-primary-300" stroke-width="3" stroke-linecap="round" stroke-linejoin="round"></path>
            <path d="M4.2,66.6 L0,66.6" id="Shape" class="stroke-primary-300" stroke-width="3" stroke-linecap="round" stroke-linejoin="round"></path>
            <path d="M28.9,66.6 L9.4,66.6" id="Shape" class="stroke-primary-300" stroke-width="3" stroke-linecap="round" stroke-linejoin="round"></path>
        </g>
    </g>
</svg>
